X:1
T:Marching Beneath the Banner
T:Marching Beneath the Banner
T:Henry Ernest Nichol
T:Henry Ernest Nichol, 1898
T:Public Domain Courtesy of the Cyber Hymnal™
T:Public Domain Courtesy of the Cyber Hymnal™
C:Henry Ernest Nichol
Z:Public Domain
Z:Courtesy of the Cyber Hymnal™
%%score ( 1 2 ) ( 3 4 )
L:1/8
Q:1/4=107
M:4/4
K:Bb
V:1 treble 
V:2 treble 
V:3 bass 
V:4 bass 
V:1
 [B,D]2 [B,D]>[CE] [DF]2 [EG]2 | [DF]4 [DB]4 | [DB]2 [FA]>[EG] [DF]2 [CE]2 | [B,D]8 | %4
w: 1.~Hark to the sound of|voic- es!|Hark to the tramp of|feet!|
w: 2.~Out of the mist of|er- ror,|Out of the realms of|night,|
w: 3.~On then, ye gal- lant|sol- diers,|On to your home a-|bove!|
 [B,D]2 [B,D]>[CE] [DF]2 [^CG]2 | F4 B4 | [Fd]2 [Ec]>[DB] [Ec]2 [Ed]2 | [DB]8 | %8
w: Is it a might- y|ar- my|Tread- ing the bu- sy|street?|
w: Out of the pride of|learn- ing,|Seek- ing the home of|light;|
w: Yours is the truth and|glo- ry,|Yours is the power and|love;|
 [DB]2 [DB]>[DB] [DA]2 [DG]2 | [DG]4 [D^F]4 | [DG]2 [DG]>[DG] [^CA]2 [CB]2 | [DA]8 | %12
w: Near- er it comes and|near- er,|Sing- ing a glad re-|frain;|
w: Out of the strife for|pow- er,|Out of the greed of|gold,|
w: Here are ye trained for|he- roes,|Yon- der ye serve the|King;|
 [DB]2 [Fc]>[FB] [FA]2 [FG]>[FA] | [FB]2 [Gc]2 [FA]2 F>F | [EG]2 [EG]>[EG] [EA]2 [FB]2 | %15
w: List what they say as they|haste a- way, To the|sound of the mar- tial|
w: On- ward they roam to their|heav’n- ly home, And the|trea- sure that grows not|
w: March to the light ’neath the|ban- ner white, With the|song that ye have to|
 (d4 c2) z2 ||"^Refrain" [DB]2 [DB]>[DB] [DA]2 [DG]2 | G4 F4 | [DB]2 B>B [DA]2 [DG]2 | A8 | %20
w: strain: *|||||
w: old. *|March- ing be- neath the|ban- ner,|Fight- ing be- neath the|cross,|
w: sing. *|||||
 [EAe]2 e>e [EAd]2 [EAc]2 | =B4 [EA]2 c4 [EA]2 | [Ed]2 c>B [CA]2 [C=EG]2 | %23
w: |||
w: Trust- ing in Him who|saves us, Ne’er shall|* we suf- fer loss;|
w: |||
 F8 ([A,C]2 [B,D]2 [A,E]2) | [DB]2 B>B [DA]2 [DG]2 | G4 F4 | [EG]2 [EG]>[EG] [FA]2 [F=B]2 | %27
w: ||||
w: Sing- ing * *|* the songs of home-|land, Loud-|ly the cho- rus rings;|
w: ||||
 ([Ec]4 [Fe]4) | [Fd]2 [Fc]>[Fc] [Ff]2 [FB]>[FB] | [FA]2 [EG]2 [Ge]2 [EG]>[EG] | %30
w: |||
w: We *|march to fight in our ar-|mor bright, At the call|
w: |||
 (FG)[DA][DB] [EAc]2 [EAd]2 | [DFB]8 |] %32
w: ||
w: of * the King of kings!||
w: ||
V:2
 x8 | x8 | x8 | x8 | x8 | (D2 E2) (F2 =E2) | x8 | x8 | x8 | x8 | x8 | x8 | x8 | x6 F>F | x8 | %15
 A6 x2 || x8 | (D2 D2) (D2 D2) | x2 D2 x4 | (E2 E2 E2 E2) | x2 [EA]2 x4 | [EA]2 [EA]2 x8 | %22
 x2 D2 x4 | C2 x12 | x2 D2 x4 | (D2 D2) (D2 F2) | x8 | x8 | x8 | x8 | D2 x6 | x8 |] %32
V:3
 [B,,F,]2 [B,,F,]>[B,,F,] [B,,B,]2 [B,,B,]2 | [B,,B,]4 [B,,F,]4 | %2
 [B,,B,]2 [B,,B,]>[E,B,] [F,B,]2 F,2 | [B,,F,]8 | [B,,F,]2 [B,,F,]>[B,,F,] [B,,B,]2 [B,,B,]2 | %5
 B,4 [D,B,]4 | [B,,B,]2 [B,,F,]>[B,,F,] [F,A,]2 [F,A,]2 | [B,,B,]8 | G,2 G,>G, [G,A,]2 [G,B,]2 | %9
 [D,B,]4 [D,A,]4 | [D,B,]2 [D,B,]>[D,B,] [A,,A,]2 [A,,G,]2 | [D,^F,]8 | %12
 [B,,F,]2 [D,B,]>[D,B,] [F,C]2 [F,B,]>[F,C] | [F,D]2 [=E,C]2 [F,C]2 [D,B,]>[D,B,] | %14
 [E,B,]2 [C,C]>[C,C] [F,C]2 [F,D]2 | [F,E]6 z2 || [B,,D,F,B,]2 [B,,D,F,B,]2 [B,,F,B,]2 [B,,F,B,]2 | %17
 ([B,,F,B,]2 [B,,F,B,]2) ([B,,F,B,]2 [B,,F,B,]2) | %18
 [B,,D,F,B,]2 [B,,D,F,B,]2 [B,,D,F,B,]2 [B,,D,F,B,]2 | ([F,,F,]2 [F,A,C]2 [F,A,C]2 [F,A,C]2) | %20
 [G,,F,]2 [F,A,C]2 [F,A,]2 [F,A,C]2 | ([F,,F,]2 [F,A,]2) ([F,A,C]2 [F,A,C]2) x4 | %22
 [B,,F,B,]2 [B,,F,B,]2 [B,,F,A,]2 [C,=E,B,]2 | ([F,,F,]6 [F,,F,]2) x6 | %24
 [B,,D,F,B,]2 [B,,D,F,B,]2 [B,,F,B,]2 [B,,F,B,]2 | %25
 ([B,,F,B,]2 [B,,F,B,]2) ([B,,F,B,]2 [B,,F,B,]2) | [E,G,B,]2 [E,G,B,]2 [E,F,A,C]2 [D,F,G,=B,]2 | %27
 ([C,E,G,D]4 [F,A,CE]4) | [B,,D,F,B,]2 [F,A,C]2 [B,,D,F,B,]2 [F,B,D]2 | %29
 [E,,E,]2 [E,G,B,]2 [E,,E,]2 [E,G,B,]2 | [F,B,]2 [F,B,]2 [F,,C,F,]2 [F,,C,F,]2 | [B,,F,B,]8 |] %32
V:4
 x8 | x8 | x6 F,2 | x8 | x8 | (B,,2 C,2) x4 | x8 | x8 | G,2 G,>G, x4 | x8 | x8 | x8 | x8 | x8 | %14
 x8 | x8 || x8 | x8 | x8 | x8 | x8 | x12 | x8 | x14 | x8 | x8 | x8 | x8 | x8 | x8 | x8 | x8 |] %32

